Papirus/16x16/mimetypes/application-x-sms-rom.svg

<svg width="16" height="16" version="1.1" xmlns="http://www.w3.org/2000/svg">
 <path d="M 2.8125,0 C 2.362375,0 2,0.3568 2,0.8 V 15.2 C 2,15.6432 2.362375,16 2.8125,16 h 11.375 C 14.637625,16 15,15.6432 15,15.2 V 5 L 11,4 10,0 Z" style="fill:#4f4f4f;stop-color:#000000"/>
 <path d="M 15,5 10,0 V 4.1666667 C 10,4.6283333 10.371667,5 10.833333,5 Z" style="fill:#696969;stop-color:#000000"/>
 <path d="m7.998048 6.3359376c-1.6390871 1.5e-6 -2.9960964 1.3570091-2.9960964 2.9960937 0 1.6390837 1.3570093 3.0058587 2.9960964 3.0058597h-2.9960964v1.328125h4.0019534c0.738354-1e-6 1.328125-0.589773 1.328125-1.328125s-0.589771-1.335937-1.328125-1.335937h-1.005857c-0.9185013-1e-6 -1.660158-0.751425-1.660158-1.6699227 0-0.9184986 0.7416567-1.6679681 1.660158-1.6679688h4.001952v-1.3281249zm0 1.6679687c-0.7383538 3e-7 -1.3281266 0.5897731-1.3281266 1.328125 0 0.7383517 0.5897727 1.3378907 1.3281266 1.3378907h1.005856c0.918497 1e-6 1.66797 0.749471 1.66797 1.667969s-0.749473 1.660156-1.66797 1.660156h-4.0019524v1.335938h4.0019534c1.639082-1e-6 2.996095-1.357009 2.996095-2.996094 0-1.639084-1.357013-3.0058586-2.996095-3.0058597h2.996095v-1.328125z" style="opacity:.2;stop-color:#000000"/>
 <path d="m7.9980476 6c-1.6390867 1.5e-6 -2.996096 1.3570092-2.996096 2.9960937 0 1.6390833 1.3570093 3.0058583 2.996096 3.0058593h-2.996096v1.328125h4.0019529c0.738354-1e-6 1.3281255-0.589773 1.3281255-1.328125s-0.5897715-1.335937-1.3281255-1.335937h-1.0058569c-0.9185009-1e-6 -1.6601576-0.7514241-1.6601576-1.6699223 0-0.9184986 0.7416567-1.667968 1.6601576-1.6679688h4.0019524v-1.3281249zm0 1.6679687c-0.7383534 4e-7 -1.3281262 0.5897731-1.3281262 1.328125 0 0.7383516 0.5897727 1.3378903 1.3281262 1.3378903h1.0058569c0.918497 1e-6 1.6679695 0.749471 1.6679695 1.667969s-0.7494725 1.660156-1.6679695 1.660156h-4.0019529v1.335938h4.0019529c1.6390825-1e-6 2.9960955-1.357009 2.9960955-2.996094 0-1.639084-1.357013-3.0058582-2.9960955-3.0058593h2.9960955v-1.328125z" style="fill:#eb675e;stop-color:#000000"/>
</svg>

<svg xmlns="http://www.w3.org/2000/svg" width="16" height="16" version="1.1">
 <path style="fill:#4f4f4f" d="M 2.8125,0 C 2.362375,0 2,0.3568 2,0.8 V 15.2 C 2,15.6432 2.362375,16 2.8125,16 h 11.375 C 14.637625,16 15,15.6432 15,15.2 V 5 L 11,4 10,0 Z"/>
 <path style="fill:#696969" d="M 15,5 10,0 V 4.1666667 C 10,4.6283333 10.371667,5 10.833333,5 Z"/>
 <path style="fill:#eb675e" d="M 8,6 C 6.36,6 5,7.36 5,9 5,10.63 6.36,12 8,12 H 5 V 13.33 H 9 C 9.74,13.33 10.33,12.74 10.33,12 10.33,11.26 9.74,10.67 9,10.67 H 8 C 7.08,10.67 6.34,9.91 6.34,9 6.34,8.08 7.08,7.33 8,7.33 H 12 V 6 Z M 8,7.67 C 7.26,7.67 6.67,8.26 6.67,9 6.67,9.73 7.26,10.33 8,10.33 H 9 C 9.92,10.33 10.67,11.08 10.67,12 10.67,12.92 9.92,13.66 9,13.66 H 5 V 15 H 9 C 10.64,15 12,13.64 12,12 12,10.36 10.64,9 9,9 H 12 V 7.67 Z"/>
</svg>
